X:1
T:Title
%%score { ( 1 4 ) | ( 2 3 ) }
L:1/8
M:9/8
K:A
V:1 treble nm="Grand Piano"
V:4 treble 
V:2 bass 
V:3 bass 
V:1
 z3 z3 z2[Q:1/4=87] [CE]/[CE]/ | [Ec][DB][CA] [A,CE]3- [A,CE]C[B,D] | z3 z [CA]2- [CA]3 | %3
[M:1/8] [EA]/A/ |[M:9/8] GBB B3- B[FA][EG] |[M:4/4] [^DF][EG][FA]G- G4 |[M:1/8] E | %7
[M:9/8] [Ec][DB][CA] [CE]3- [CE]2 [CE]/[CE]/ |[M:4/4] [Ed][Ec][EB][Ee]- [Ee]4 | %9
[M:1/8] [Ee][K:bass] |[M:9/8][K:treble] [Fe][Fd][FB] A3- AGA |[M:4/4] BcB[CA]- [CA]4 | %12
[M:1/8] [EA] |[M:9/8] [FA][DF][FA] [Fd]3 [DF]2 [DF] | [DF][CE][CA] [Ec]3- [Ec]2 [Ec] | %15
 cBc d3 c2 [EB] | [EA][DG][CA] c3 B2 E | [Ec][DB][CA] [CE]3- [CE]2 [CE] | %18
 [Ed][Ec][EB] [Ee]3- [Ee]2 [Ee] | [Fe][Fd][FB] A3- AGA | BcB B3 [CA]3 |] %21
V:2
 z3 z3 z2 [A,,A,]/[A,,A,]/ | [A,,A,][A,,E,][A,,E,] z3 z A,[A,,A,] | %2
 [A,,A,]2 [A,,E,] [A,,E,] [A,,E,]2- [A,,E,] A,,2 |[M:1/8] z/ E/ | %4
[M:9/8] [E,B,E][E,G,E][E,G,E] [E,G,E]3- [E,G,E][E,B,][E,B,] | %5
[M:4/4] [B,,B,][B,,B,][B,,B,][E,B,E]- [E,B,E]4 |[M:1/8] [E,G,]/E,/ | %7
[M:9/8] [A,,A,][A,,E,][A,,E,] [A,,A,]3- [A,,A,]2 [A,,A,] | %8
[M:4/4] [B,,G,][B,,G,][B,,G,][C,A,]- [C,A,]4 |[M:1/8] [C,A,]/ z/ | %10
[M:9/8] [D,A,][D,A,][D,D] [E,CE]3- [E,CE][E,B,E][E,CE] | %11
[M:4/4] [E,G,D][E,G,E][E,G,D][A,,A,]- [A,,A,]4 |[M:1/8] [C,A,] | %13
[M:9/8] [D,A,][D,A,][D,A,] [D,A,]3 [D,A,]2 [D,A,] | %14
 [A,,A,][A,,A,][A,,A,] [A,,A,]3- [A,,A,]2 [A,,A,] | %15
 [E,A,E][E,G,E][E,A,E] [E,B,E]3 [E,A,E]2 [D,G,] | [C,A,][B,,E,][A,,E,] [E,A,E]3 [E,G,E]2 [E,G,] | %17
 [A,,A,][A,,E,][A,,E,] [A,,A,]3- [A,,A,]2 [A,,A,] | [B,,G,][B,,G,][B,,G,] [C,A,]3- [C,A,]2 [C,A,] | %19
 [D,A,][D,A,][D,D] [E,CE]3- [E,CE][E,B,E][E,CE] | [E,G,D][E,G,E][E,G,D] [E,G,D]3 [A,,A,]3 |] %21
V:3
 x9 | z3 A,,6 | x9 |[M:1/8] A,, |[M:9/8] x9 |[M:4/4] x8 |[M:1/8] x |[M:9/8] x9 |[M:4/4] x8 | %9
[M:1/8] x |[M:9/8] x9 |[M:4/4] x8 |[M:1/8] x |[M:9/8] x9 | x9 | x9 | x9 | x9 | x9 | x9 | x9 |] %21
V:4
 x9 | x9 | [CE]2 [DF] .[B,G]3 z E,2 |[M:1/8] C |[M:9/8] x9 |[M:4/4] x8 |[M:1/8] z/ G,/ | %7
[M:9/8] x9 |[M:4/4] x8 |[M:1/8] z/[K:bass] [C,A,]/ |[M:9/8][K:treble] x9 |[M:4/4] x8 |[M:1/8] x | %13
[M:9/8] x9 | x9 | x9 | x9 | x9 | x9 | x9 | x9 |] %21

